svg/u1f692.svg

<svg viewBox="0 0 128 128" xmlns="http://www.w3.org/2000/svg">
  <linearGradient id="b" gradientUnits="userSpaceOnUse" x1="10.764" x2="29.775" y1="48.211" y2="67.68">
    <stop offset=".0053417" stop-color="#BBDEFB"/>
    <stop offset=".6211" stop-color="#5BA9EE"/>
    <stop offset="1" stop-color="#1E88E5"/>
  </linearGradient>
  <path d="m29.19 70.67h-14.59c-1.65 0-2.85-1.31-2.67-2.92l1.75-15.51c0.18-1.61 1.67-2.92 3.33-2.92h12.93c1.65 0 2.85 1.31 2.67 2.92l-0.1 15.51c-0.17 1.62-1.66 2.92-3.32 2.92z" fill="url(#b)"/>
  <path d="m25.15 53.99h-0.28c-3.22 0-5.85-2.63-5.85-5.85v-12.65c0-3.22 2.63-5.85 5.85-5.85h0.28c3.22 0 5.85 2.63 5.85 5.85v12.64c0 3.22-2.63 5.86-5.85 5.86z" fill="#E53935"/>
  <path d="m32 39.99h-13.99c-2.2 0-4 1.8-4 4v0.05c0 2.2 1.8 4 4 4h13.99c2.2 0 4-1.8 4-4v-0.05c0-2.2-1.8-4-4-4z"/>
  <g opacity=".2">
    <path d="m25.15 31.64c2.12 0 3.85 1.73 3.85 3.85v12.64c0 2.12-1.73 3.85-3.85 3.85h-0.28c-2.12 0-3.85-1.73-3.85-3.85v-12.64c0-2.12 1.73-3.85 3.85-3.85h0.28m0-2h-0.28c-3.22 0-5.85 2.63-5.85 5.85v12.64c0 3.22 2.63 5.85 5.85 5.85h0.28c3.22 0 5.85-2.63 5.85-5.85v-12.64c0-3.22-2.63-5.85-5.85-5.85z" fill="#424242"/>
  </g>
  <g opacity=".2">
    <path d="m32 41.97c1.1 0 2 0.9 2 2v0.05c0 1.1-0.9 2-2 2h-13.99c-1.1 0-2-0.9-2-2v-0.05c0-1.1 0.9-2 2-2h13.99m0-2h-13.99c-2.2 0-4 1.8-4 4v0.05c0 2.2 1.8 4 4 4h13.99c2.2 0 4-1.8 4-4v-0.05c0-2.2-1.8-4-4-4z" fill="#F5F5F5"/>
  </g>
  <path d="m118.65 23.94-77.39-0.26c-2.89-0.01-5.25 2.27-5.29 5.09l-0.11 10.21c-0.03 2.82 2.28 5.11 5.17 5.12l77.39 0.26c2.89 0.01 5.25-2.27 5.29-5.09l0.11-10.21c0.03-2.82-2.29-5.11-5.17-5.12zm-76.39 3.83 5.02 0.02c0.47 0 0.69 0.55 0.36 0.87l-6.66 6.4c-0.33 0.32-0.89 0.09-0.89-0.36l0.05-4.9c0.02-1.13 0.96-2.04 2.12-2.03zm8.11 12.27-7.34-0.02c-0.47 0-0.69-0.55-0.36-0.87l9.11-8.77c0.34-0.32 0.9-0.09 0.89 0.37l-0.18 7.28c-0.04 1.12-0.98 2.02-2.12 2.01zm8.62-12.22 4.15 0.01c0.47 0 0.69 0.55 0.36 0.87l-5.78 5.56c-0.33 0.32-0.89 0.09-0.89-0.36l0.05-4.05c0.01-1.12 0.96-2.03 2.11-2.03zm8.23 12.28-8.33-0.03c-0.47 0-0.69-0.55-0.36-0.87l10.01-9.63c0.33-0.32 0.89-0.09 0.89 0.36l-0.09 8.13c-0.02 1.13-0.96 2.04-2.12 2.04zm2.38-12.24zm6.18 0.02 5.13 0.02c0.47 0 0.69 0.55 0.36 0.87l-6.82 6.56c-0.33 0.32-0.9 0.09-0.89-0.37l0.1-5.07c0.03-1.11 0.97-2.01 2.12-2.01zm8.17 12.28-7.28-0.02c-0.47 0-0.69-0.55-0.36-0.87l8.95-8.61c0.33-0.32 0.89-0.09 0.89 0.36l-0.08 7.11c-0.02 1.12-0.96 2.03-2.12 2.03zm3.43-12.24zm5.05 0.02 5.22 0.02c0.47 0 0.69 0.55 0.36 0.87l-6.84 6.58c-0.33 0.32-0.89 0.09-0.89-0.36l0.04-5.07c0-1.13 0.95-2.05 2.11-2.04zm8.26 12.27-7.28-0.02c-0.47 0-0.69-0.55-0.36-0.87l8.95-8.61c0.33-0.32 0.89-0.09 0.89 0.36l-0.08 7.11c-0.02 1.13-0.97 2.04-2.12 2.03zm3.42-12.24zm5.09 0.02 5.18 0.02c0.47 0 0.69 0.55 0.36 0.87l-6.83 6.57c-0.33 0.32-0.89 0.09-0.89-0.36l0.07-5.07c0.01-1.12 0.96-2.03 2.11-2.03zm8.22 12.28-7.28-0.02c-0.47 0-0.69-0.55-0.36-0.87l8.95-8.61c0.33-0.32 0.89-0.09 0.89 0.36l-0.08 7.11c-0.02 1.12-0.97 2.03-2.12 2.03z" fill="#ccc"/>
  <linearGradient id="a" gradientUnits="userSpaceOnUse" x1="64" x2="64" y1="45.456" y2="112.92">
    <stop offset=".0025767" stop-color="#EF5350"/>
    <stop offset="1" stop-color="#D32F2F"/>
  </linearGradient>
  <path d="m119.97 44.04-75.97 0.06c-2.21 0-4 1.79-4 4v43.9-43.96c0-2.21-1.81-4.04-4.02-4.04h-20.55c-4.14 0-7.6 3.18-7.97 7.31l-3.46 40.69v10.72c0 5.11 4.06 9.28 9.17 9.28h101.74c5.11 0 9.09-4.18 9.09-9.28v-54.68c0-2.21-1.82-4-4.03-4z" fill="url(#a)"/>
  <polygon fill="#E6E6E6" points="40 80 5.23 80 4.55 88 40 88"/>
  <polygon fill="#E6E6E6" points="124 88 58 88 58.02 79.85 124 79.73"/>
  <g opacity=".2">
    <path d="m35.99 47c0.54 0 1.01 0.48 1.01 1.04v-0.04h6s0.45-0.95 1.01-0.95l75.97-0.03c0.55 0 1.02 0.48 1.02 1.02v54.68c0 3.52-2.67 6.28-6.09 6.28h-101.74c-3.4 0-6.17-2.82-6.17-6.28v-10.59l3.45-40.55c0.23-2.56 2.42-4.57 4.98-4.57h20.57m-0.02-3.01h-20.55c-4.14 0-7.6 3.18-7.97 7.31l-3.46 40.69v10.72c0 5.11 4.06 9.28 9.17 9.28h101.74c5.11 0 9.09-4.18 9.09-9.28v-54.68c0-2.21-1.81-4.04-4.02-4.04l-75.98 0.07c-2.21 0-4 1.81-4 4.02v-0.06c0-2.2-1.81-4.03-4.02-4.03z" fill="#424242"/>
  </g>
  <path d="m40 44v51h18v-51h-18zm16 47h-14v-4h14v4zm0-8h-14v-4h14v4zm0-8h-14v-4h14v4zm0-8h-14v-4h14v4zm0-8h-14v-4h14v4zm0-8h-14v-4h14v4z" fill="#ccc"/>
  <path d="m29.19 71.94h-14.59c-1.65 0-2.85-1.31-2.67-2.92l1.75-15.51c0.18-1.61 1.67-2.92 3.33-2.92h12.93c1.65 0 2.85 1.31 2.67 2.92l-0.1 15.51c-0.17 1.61-1.66 2.92-3.32 2.92z" fill="#546E7A"/>
  <g opacity=".2">
    <path d="m29.95 52.59c0.24 0 0.43 0.07 0.55 0.21 0.11 0.12 0.15 0.28 0.13 0.48l-0.01 0.11v0.11l-0.1 15.38c-0.11 0.57-0.72 1.06-1.33 1.06h-14.59c-0.24 0-0.43-0.07-0.55-0.21-0.11-0.12-0.15-0.28-0.13-0.48l1.75-15.51c0.07-0.6 0.71-1.14 1.34-1.14h12.94m0-2.01h-12.93c-1.65 0-3.14 1.31-3.33 2.92l-1.75 15.51c-0.18 1.61 1.01 2.92 2.67 2.92h14.59c1.65 0 3.14-1.31 3.33-2.92l0.1-15.51c0.17-1.61-1.03-2.92-2.68-2.92z" fill="#424242"/>
  </g>
  <circle cx="30" cy="110" fill="#4E342E" r="14"/>
  <g opacity=".2">
    <path d="m30 98c6.62 0 12 5.38 12 12s-5.38 12-12 12-12-5.38-12-12 5.38-12 12-12m0-2c-7.73 0-14 6.27-14 14s6.27 14 14 14 14-6.27 14-14-6.27-14-14-14z" fill="#eee"/>
  </g>
  <circle cx="30" cy="110" fill="#BDBDBD" r="6"/>
  <circle cx="102" cy="110" fill="#4E342E" r="14"/>
  <g opacity=".2">
    <path d="m102 98c6.62 0 12 5.38 12 12s-5.38 12-12 12-12-5.38-12-12 5.38-12 12-12m0-2c-7.73 0-14 6.27-14 14s6.27 14 14 14 14-6.27 14-14-6.27-14-14-14z" fill="#eee"/>
  </g>
  <circle cx="102" cy="110" fill="#BDBDBD" r="6"/>
  <g opacity=".2">
    <path d="m41.24 23.68 0.02 1 77.39 0.26c1.15 0 2.22 0.45 3.02 1.25 0.76 0.77 1.17 1.79 1.16 2.86l-0.11 10.21c-0.03 2.26-1.94 4.1-4.28 4.1l-77.41-0.26c-1.15 0-2.22-0.45-3.02-1.25-0.76-0.77-1.17-1.79-1.16-2.86l0.11-10.21c0.03-2.26 1.94-4.1 4.27-4.1v-1m-0.62 12.53c0.4 0 0.77-0.15 1.06-0.43l6.66-6.4c0.45-0.43 0.58-1.07 0.36-1.64-0.23-0.57-0.78-0.95-1.41-0.95l-5.03-0.02c-1.69 0-3.09 1.36-3.11 3.02l-0.05 4.9c0 0.4 0.15 0.78 0.43 1.07 0.29 0.28 0.68 0.45 1.09 0.45m16.74-0.79c0.4 0 0.77-0.15 1.06-0.43l5.78-5.56c0.45-0.43 0.59-1.07 0.36-1.64s-0.78-0.95-1.41-0.95l-4.16-0.01c-1.69 0-3.09 1.36-3.11 3.02l-0.05 4.05c0 0.4 0.15 0.78 0.43 1.07 0.3 0.28 0.7 0.45 1.1 0.45m16.74 1.06c0.4 0 0.77-0.15 1.06-0.43l6.82-6.56c0.45-0.43 0.58-1.07 0.36-1.64-0.23-0.57-0.78-0.95-1.41-0.95l-5.14-0.02c-1.68 0-3.07 1.34-3.11 3l-0.1 5.07c-0.01 0.41 0.14 0.79 0.43 1.08 0.28 0.29 0.68 0.45 1.09 0.45m16.71 0.08c0.4 0 0.77-0.15 1.06-0.43l6.84-6.58c0.45-0.43 0.58-1.07 0.36-1.64-0.23-0.57-0.78-0.95-1.41-0.95l-5.23-0.02c-1.7 0-3.1 1.36-3.11 3.04l-0.04 5.07c0 0.4 0.15 0.78 0.43 1.07 0.3 0.27 0.7 0.44 1.1 0.44m16.74 0.04c0.4 0 0.77-0.15 1.06-0.43l6.83-6.57c0.45-0.43 0.58-1.07 0.36-1.64-0.23-0.57-0.78-0.95-1.41-0.95l-5.19-0.02c-1.69 0-3.09 1.35-3.11 3.02l-0.07 5.07c-0.01 0.4 0.15 0.79 0.43 1.07 0.29 0.29 0.69 0.45 1.1 0.45m-40.31 4.5c1.69 0 3.09-1.36 3.11-3.02l0.09-8.13c0-0.4-0.15-0.78-0.43-1.07-0.29-0.29-0.68-0.45-1.09-0.45-0.4 0-0.77 0.15-1.06 0.43l-10.01 9.63c-0.45 0.43-0.59 1.07-0.36 1.64s0.78 0.95 1.41 0.95l8.33 0.03c0-0.01 0.01-0.01 0.01-0.01m-16.85-0.06c1.67 0 3.06-1.34 3.11-2.98l0.18-7.28c0.01-0.41-0.14-0.79-0.42-1.08-0.29-0.29-0.69-0.46-1.1-0.46-0.4 0-0.77 0.15-1.06 0.43l-9.11 8.77c-0.45 0.43-0.58 1.07-0.36 1.64 0.23 0.57 0.78 0.95 1.41 0.95l7.34 0.02c-0.01-0.01 0-0.01 0.01-0.01m33.58 0.12c1.69 0 3.09-1.36 3.11-3.02l0.08-7.11c0-0.4-0.15-0.78-0.43-1.07-0.29-0.29-0.68-0.45-1.09-0.45-0.4 0-0.77 0.15-1.06 0.43l-8.95 8.61c-0.45 0.43-0.58 1.07-0.36 1.64 0.23 0.57 0.78 0.95 1.41 0.95l7.28 0.02h0.01m16.73 0.05c1.69 0 3.09-1.36 3.11-3.02l0.08-7.11c0-0.4-0.15-0.78-0.43-1.07-0.29-0.29-0.68-0.45-1.09-0.45-0.4 0-0.77 0.15-1.06 0.43l-8.95 8.61c-0.45 0.43-0.58 1.07-0.36 1.64 0.23 0.57 0.78 0.95 1.41 0.95l7.28 0.02h0.01m16.73 0.06c1.69 0 3.09-1.36 3.11-3.02l0.08-7.11c0-0.4-0.15-0.78-0.43-1.07-0.29-0.29-0.68-0.45-1.09-0.45-0.4 0-0.77 0.15-1.06 0.43l-8.95 8.61c-0.45 0.43-0.58 1.07-0.36 1.64 0.23 0.57 0.78 0.95 1.41 0.95l7.28 0.02h0.01m-76.18-17.59c-2.88 0-5.24 2.27-5.27 5.09l-0.11 10.21c-0.03 2.82 2.28 5.11 5.17 5.12l77.39 0.26h0.02c2.88 0 5.24-2.27 5.27-5.09l0.11-10.21c0.03-2.82-2.28-5.11-5.17-5.12l-77.39-0.26h-0.02zm-0.63 11.53c-0.27 0-0.53-0.2-0.52-0.51l0.05-4.9c0.01-1.13 0.96-2.03 2.11-2.03h0.01l5.02 0.02c0.47 0 0.69 0.55 0.36 0.87l-6.66 6.4c-0.11 0.1-0.24 0.15-0.37 0.15zm16.74-0.79c-0.27 0-0.53-0.2-0.52-0.51l0.05-4.05c0.01-1.13 0.96-2.03 2.11-2.03h0.01l4.15 0.01c0.47 0 0.69 0.55 0.36 0.87l-5.78 5.56c-0.12 0.1-0.25 0.15-0.38 0.15zm12.25-6.56zm4.49 7.62c-0.27 0-0.53-0.21-0.52-0.52l0.1-5.07c0.02-1.12 0.96-2.02 2.11-2.02h0.01l5.13 0.02c0.47 0 0.69 0.55 0.36 0.87l-6.82 6.56c-0.11 0.12-0.25 0.16-0.37 0.16zm13.29-7.56zm3.42 7.64c-0.27 0-0.52-0.2-0.52-0.51l0.04-5.07c0.01-1.13 0.95-2.04 2.11-2.04h0.01l5.22 0.02c0.47 0 0.69 0.55 0.36 0.87l-6.84 6.58c-0.12 0.1-0.25 0.15-0.38 0.15zm13.31-7.59zm3.43 7.63c-0.27 0-0.53-0.21-0.52-0.51l0.07-5.07c0.01-1.12 0.96-2.03 2.11-2.03h0.01l5.18 0.02c0.47 0 0.69 0.55 0.36 0.87l-6.83 6.57c-0.12 0.11-0.25 0.15-0.38 0.15zm-40.31 4.5s-0.01 0 0 0l-8.34-0.03c-0.47 0-0.69-0.55-0.36-0.87l10.01-9.63c0.11-0.1 0.24-0.15 0.37-0.15 0.27 0 0.53 0.2 0.52 0.51l-0.09 8.13c-0.02 1.13-0.96 2.04-2.11 2.04zm-16.85-0.06c-0.01 0-0.01 0 0 0l-7.35-0.02c-0.47 0-0.69-0.55-0.36-0.87l9.11-8.77c0.11-0.1 0.24-0.15 0.37-0.15 0.27 0 0.53 0.21 0.52 0.52l-0.18 7.28c-0.04 1.12-0.97 2.01-2.11 2.01zm33.58 0.12-7.29-0.02c-0.47 0-0.69-0.55-0.36-0.87l8.95-8.61c0.11-0.1 0.24-0.15 0.37-0.15 0.27 0 0.53 0.2 0.52 0.51l-0.08 7.11c-0.02 1.12-0.96 2.03-2.11 2.03zm16.73 0.05-7.29-0.02c-0.47 0-0.69-0.55-0.36-0.87l8.95-8.61c0.11-0.1 0.24-0.15 0.37-0.15 0.27 0 0.53 0.2 0.52 0.51l-0.08 7.11c-0.01 1.12-0.96 2.03-2.11 2.03zm16.73 0.06-7.29-0.02c-0.47 0-0.69-0.55-0.36-0.87l8.95-8.61c0.11-0.1 0.24-0.15 0.37-0.15 0.27 0 0.53 0.2 0.52 0.51l-0.08 7.11c-0.01 1.12-0.95 2.03-2.11 2.03z" fill="#424242"/>
  </g>
  <g opacity=".2">
    <path d="m57.02 45v49.04h-16.04v-49.04h16.04m0.98-0.98h-18v51h18v-51z" fill="#424242"/>
  </g>
</svg>

<svg style="enable-background:new 0 0 128 128;" viewBox="0 0 128 128" xmlns="http://www.w3.org/2000/svg" xmlns:xlink="http://www.w3.org/1999/xlink">
  <linearGradient id="SVGID_1_" gradientTransform="matrix(1 0 0 -1 0 128)" gradientUnits="userSpaceOnUse" x1="10.7636" x2="29.7746" y1="79.7886" y2="60.3196">
    <stop offset="5.341700e-03" style="stop-color:#BBDEFB"/>
    <stop offset="0.6211" style="stop-color:#5BA9EE"/>
    <stop offset="1" style="stop-color:#1E88E5"/>
  </linearGradient>
  <path d="M29.19,70.67H14.6c-1.65,0-2.85-1.31-2.67-2.92l1.75-15.51c0.18-1.61,1.67-2.92,3.33-2.92 h12.93c1.65,0,2.85,1.31,2.67,2.92l-0.1,15.51C32.34,69.37,30.85,70.67,29.19,70.67z" style="fill:url(#SVGID_1_);"/>
  <path d="M25.15,53.99h-0.28c-3.22,0-5.85-2.63-5.85-5.85V35.49c0-3.22,2.63-5.85,5.85-5.85h0.28 c3.22,0,5.85,2.63,5.85,5.85v12.64C31,51.35,28.37,53.99,25.15,53.99z" style="fill:#E53935;"/>
  <path d="M32,39.99H18.01c-2.2,0-4,1.8-4,4v0.05c0,2.2,1.8,4,4,4H32c2.2,0,4-1.8,4-4v-0.05 C36,41.79,34.2,39.99,32,39.99z" style="fill:#504F4F;"/>
  <path d="M118.65,23.94l-77.39-0.26c-2.89-0.01-5.25,2.27-5.29,5.09l-0.11,10.21 c-0.03,2.82,2.28,5.11,5.17,5.12l77.39,0.26c2.89,0.01,5.25-2.27,5.29-5.09l0.11-10.21C123.85,26.24,121.53,23.95,118.65,23.94z M42.26,27.77l5.02,0.02c0.47,0,0.69,0.55,0.36,0.87l-6.66,6.4c-0.33,0.32-0.89,0.09-0.89-0.36l0.05-4.9 C40.16,28.67,41.1,27.76,42.26,27.77z M50.37,40.04l-7.34-0.02c-0.47,0-0.69-0.55-0.36-0.87l9.11-8.77c0.34-0.32,0.9-0.09,0.89,0.37 l-0.18,7.28C52.45,39.15,51.51,40.05,50.37,40.04z M58.99,27.82l4.15,0.01c0.47,0,0.69,0.55,0.36,0.87l-5.78,5.56 c-0.33,0.32-0.89,0.09-0.89-0.36l0.05-4.05C56.89,28.73,57.84,27.82,58.99,27.82z M67.22,40.1l-8.33-0.03 c-0.47,0-0.69-0.55-0.36-0.87l10.01-9.63c0.33-0.32,0.89-0.09,0.89,0.36l-0.09,8.13C69.32,39.19,68.38,40.1,67.22,40.1z M75.78,27.88l5.13,0.02c0.47,0,0.69,0.55,0.36,0.87l-6.82,6.56c-0.33,0.32-0.9,0.09-0.89-0.37l0.1-5.07 C73.69,28.78,74.63,27.88,75.78,27.88z M83.95,40.16l-7.28-0.02c-0.47,0-0.69-0.55-0.36-0.87l8.95-8.61 c0.33-0.32,0.89-0.09,0.89,0.36l-0.08,7.11C86.05,39.25,85.11,40.16,83.95,40.16z M92.43,27.94l5.22,0.02 c0.47,0,0.69,0.55,0.36,0.87l-6.84,6.58c-0.33,0.32-0.89,0.09-0.89-0.36l0.04-5.07C90.32,28.85,91.27,27.93,92.43,27.94z M100.69,40.21l-7.28-0.02c-0.47,0-0.69-0.55-0.36-0.87l8.95-8.61c0.33-0.32,0.89-0.09,0.89,0.36l-0.08,7.11 C102.79,39.31,101.84,40.22,100.69,40.21z M109.2,27.99l5.18,0.02c0.47,0,0.69,0.55,0.36,0.87l-6.83,6.57 c-0.33,0.32-0.89,0.09-0.89-0.36l0.07-5.07C107.1,28.9,108.05,27.99,109.2,27.99z M117.42,40.27l-7.28-0.02 c-0.47,0-0.69-0.55-0.36-0.87l8.95-8.61c0.33-0.32,0.89-0.09,0.89,0.36l-0.08,7.11C119.52,39.36,118.57,40.27,117.42,40.27z" style="fill:#CCCCCC;"/>
  <linearGradient id="SVGID_2_" gradientUnits="userSpaceOnUse" x1="64" x2="64" y1="110.544" y2="43.08">
    <stop offset="0" style="stop-color:#D32F2F"/>
    <stop offset="0.9974" style="stop-color:#EF5350"/>
  </linearGradient>
  <path d="M124,48.04v54.68c0,5.1-3.98,9.28-9.09,9.28H13.17C8.06,112,4,107.83,4,102.72V92l0.34-4 l0.68-8l2.44-28.69C7.83,47.18,11.29,44,15.43,44h20.55c2.21,0,4.02,1.83,4.02,4.04c0.03-2.18,1.81-3.94,4-3.94l75.97-0.06 C122.18,44.04,124,45.83,124,48.04z" style="fill:url(#SVGID_2_);"/>
  <linearGradient id="SVGID_3_" gradientUnits="userSpaceOnUse" x1="4.0766" x2="38.2154" y1="84" y2="84">
    <stop offset="0" style="stop-color:#CCCCCC"/>
    <stop offset="1" style="stop-color:#EDEDED"/>
  </linearGradient>
  <polygon points="40,80 40,88 4.34,88 5.02,80 " style="fill:url(#SVGID_3_);"/>
  <linearGradient id="SVGID_4_" gradientUnits="userSpaceOnUse" x1="59.0765" x2="122.2383" y1="83.865" y2="83.865">
    <stop offset="0.6605" style="stop-color:#EDEDED"/>
    <stop offset="1" style="stop-color:#CCCCCC"/>
  </linearGradient>
  <polygon points="124,88 58,88 58.02,79.85 124,79.73 " style="fill:url(#SVGID_4_);"/>
  <path d="M40,44v51h18V44H40z M56,91H42v-4h14V91z M56,83H42v-4h14V83z M56,75H42v-4h14V75z M56,67H42v-4h14 V67z M56,59H42v-4h14V59z M56,51H42v-4h14V51z" style="fill:#CCCCCC;"/>
  <path d="M29.19,71.94H14.6c-1.65,0-2.85-1.31-2.67-2.92l1.75-15.51c0.18-1.61,1.67-2.92,3.33-2.92h12.93 c1.65,0,2.85,1.31,2.67,2.92l-0.1,15.51C32.34,70.63,30.85,71.94,29.19,71.94z" style="fill:#546E7A;"/>
  <circle cx="30" cy="110" r="14" style="fill:#553A30;"/>
  <circle cx="30" cy="110" r="6" style="fill:#BDBDBD;"/>
  <circle cx="102" cy="110" r="14" style="fill:#553A30;"/>
  <circle cx="102" cy="110" r="6" style="fill:#BDBDBD;"/>
</svg>
